ui_kit/lib/assets/icons/leave_hls.svg

<svg width="24" height="24" viewBox="0 0 24 24" fill="none" xmlns="http://www.w3.org/2000/svg">
<path fill-rule="evenodd" clip-rule="evenodd" d="M6.55 5.7C6.32457 5.7 6.10836 5.78955 5.94896 5.94896C5.78955 6.10837 5.7 6.32457 5.7 6.55V18.45C5.7 18.6754 5.78955 18.8916 5.94896 19.051C6.10837 19.2104 6.32457 19.3 6.55 19.3H9.95C10.4194 19.3 10.8 19.6806 10.8 20.15C10.8 20.6194 10.4194 21 9.95 21H6.55C5.8737 21 5.2251 20.7313 4.74688 20.2531C4.26866 19.7749 4 19.1263 4 18.45V6.55C4 5.8737 4.26866 5.2251 4.74688 4.74688C5.2251 4.26866 5.8737 4 6.55 4H9.95C10.4194 4 10.8 4.38056 10.8 4.85C10.8 5.31944 10.4194 5.7 9.95 5.7H6.55ZM15.299 7.64897C15.6309 7.31702 16.1691 7.31702 16.5011 7.64897L20.7484 11.8963C20.7574 11.9052 20.7662 11.9144 20.7748 11.9237C20.8415 11.9959 20.8934 12.0769 20.9305 12.1627C20.9752 12.2661 21 12.3802 21 12.5C21 12.62 20.9751 12.7343 20.9303 12.8378C20.8936 12.9227 20.8423 13.0028 20.7767 13.0743C20.7674 13.0844 20.758 13.0942 20.7483 13.1038L16.5011 17.351C16.1691 17.683 15.6309 17.683 15.299 17.351C14.967 17.0191 14.967 16.4809 15.299 16.149L18.0979 13.35H9.95002C9.48058 13.35 9.10002 12.9694 9.10002 12.5C9.10002 12.0306 9.48058 11.65 9.95002 11.65H18.0979L15.299 8.85105C14.967 8.5191 14.967 7.98091 15.299 7.64897Z" fill="#F5F9FF" fill-opacity="0.95"/>
</svg>

<svg xmlns="http://www.w3.org/2000/svg" width="24" height="24" fill="none" viewBox="0 0 24 24"><path fill="#F5F9FF" fill-opacity=".95" fill-rule="evenodd" d="M6.55 5.7a.85.85 0 0 0-.85.85v11.9a.85.85 0 0 0 .85.85h3.4a.85.85 0 0 1 0 1.7h-3.4A2.55 2.55 0 0 1 4 18.45V6.55A2.55 2.55 0 0 1 6.55 4h3.4a.85.85 0 0 1 0 1.7h-3.4Zm8.749 1.949a.85.85 0 0 1 1.202 0l4.247 4.247a.853.853 0 0 1 .182.942.846.846 0 0 1-.182.266l-4.247 4.247a.85.85 0 1 1-1.202-1.202l2.799-2.799H9.95a.85.85 0 0 1 0-1.7h8.148l-2.799-2.799a.85.85 0 0 1 0-1.202Z" clip-rule="evenodd"/></svg>
